X:9397
T:Le long de la rivire
R:Bourre  2 temps
A:Bourbonnais
O:France
M:2/4
L:1/8
Q:1/8=220
K:G
D|GA Bc|d2A2|dcAB|GGGD|GABc|d2A2|
dcAB|G2 zB|AGFG|A2A2|BcBA|GGGB|AGFG|A2A2|BcAB|G2||
W:Le long de la rivire, j'ai perdu mes gants, maman!
W:Le long de la rivire, j'ai perdu mes gants
W:Mes gants et mes jarretires, mon p'tit panier blanc, maman !
W:Mes gants et mes jarretires, mon p'tit panier blanc.
